src/assets/images/error-icon.svg

<svg width="26" height="26" viewBox="0 0 26 26" fill="none" xmlns="http://www.w3.org/2000/svg">
<path d="M13 0C5.8208 0 0 5.8229 0 13C0 20.1813 5.8208 26 13 26C20.1792 26 26 20.1813 26 13C26 5.8229 20.1792 0 13 0ZM13 23.4839C7.20598 23.4839 2.51613 18.796 2.51613 13C2.51613 7.20792 7.20619 2.51613 13 2.51613C18.7919 2.51613 23.4839 7.20614 23.4839 13C23.4839 18.7939 18.796 23.4839 13 23.4839ZM15.2016 18.0323C15.2016 19.2462 14.214 20.2339 13 20.2339C11.786 20.2339 10.7984 19.2462 10.7984 18.0323C10.7984 16.8183 11.786 15.8306 13 15.8306C14.214 15.8306 15.2016 16.8183 15.2016 18.0323ZM10.9362 6.95075L11.2927 14.0798C11.3094 14.4146 11.5858 14.6774 11.9209 14.6774H14.0791C14.4142 14.6774 14.6906 14.4146 14.7073 14.0798L15.0637 6.95075C15.0817 6.59147 14.7953 6.29032 14.4355 6.29032H11.5645C11.2047 6.29032 10.9183 6.59147 10.9362 6.95075Z" fill="#F9A1A1"/>
</svg>

<svg fill="none" viewBox="0 0 26 26" xmlns="http://www.w3.org/2000/svg"><path d="M13 0C5.82 0 0 5.823 0 13c0 7.181 5.82 13 13 13s13-5.819 13-13c0-7.177-5.82-13-13-13zm0 23.484A10.478 10.478 0 012.516 13 10.48 10.48 0 0113 2.516 10.48 10.48 0 0123.484 13 10.478 10.478 0 0113 23.484zm2.202-5.452c0 1.214-.988 2.202-2.202 2.202s-2.202-.988-2.202-2.202.988-2.201 2.202-2.201 2.202.987 2.202 2.201zM10.936 6.95l.357 7.13a.629.629 0 00.628.597h2.158a.629.629 0 00.628-.598l.357-7.129a.629.629 0 00-.628-.66h-2.871a.63.63 0 00-.629.66z" fill="#F9A1A1"/></svg>
